!!!OTL: Heichengshou
!!!ARE: Asia, China,ÿZhejiang, Zhoushan
!! III, 633
!!!SCT: C1623
!!!YEM: Copyright 1995, estate of Helmut Schaffrath.
**kern
*ICvox
*Ivox
*M2/4
*k[b-]
*F:
{16ff
8.ff
16dd
8.cc
=1
8dd
16cc
16a
8g
8r}
=2
{16cc
8.cc
16a
8.a
=3
16g
8g
16a
8f
8r}
=4
{8g
16g
16f
16g
8.g
=5
8cc
16cc
16a
8g
8r}
=6
{8cc
16cc
16a
8dd
16cc
16a
=7
8g
8d
8f
8r}
=8
{8d
8f
8d
8f
=9
8g
8a
8g
8r}
=10
{8a
8dd
8.a
16cc
=11
8g
8d
8f
8r}
=12
{16a
8.cc
8dd
8cc
=13
8.a
16dd
8cc
8r}
=14
{16dd
8cc
16a
8g
8f
=15
16g
8g
16a
8f
8r}
=16
{16d
8.f
16d
8.f
=17
8a
8a
8g
8r}
=18
{16cc
8cc
16a
8.g
16f
=19
8f
8g
8f
8r}
=20
{8a
8cc
8a
8cc
=21
16ff
8.ff
8dd
16cc
16a
=22
2g}
=23
{8cc
8cc
8a
16g
16f
=24
8f
8a
8g
8f
=25
8f
8a
8g
8e
=26
2d}
=27
{16d
16c
16d
16f
8g
8r
=28
8.cc
16a
8g
8r}
=29
{8f
8a
8g
8f
=30
8f
8a
8g
8e
=31
2d}
==
!!!AGN: Xiaodiao. Ma caizhu
!!!AMT: simple duple
!!!AIN: vox
!!!EED: Helmut Schaffrath
!!!EEV: 1.0
*-
